packages/foundations/assets/icons/functional/images/devices/telephone_20_filled.svg

<svg width="20" height="20" viewBox="0 0 20 20" fill="none" xmlns="http://www.w3.org/2000/svg">
<g clip-path="url(#clip0_2204_2748)">
<path fill-rule="evenodd" clip-rule="evenodd" d="M2.375 6.74485C2.375 11.1837 8.84588 17.7137 13.2058 17.7137C15.2181 17.7137 17.625 15.7606 17.625 13.9654C17.625 13.4328 17.4474 12.9001 17.0331 12.4858L15.6324 11.0653C15.3168 10.7497 14.9419 10.5919 14.5474 10.5919C14.1133 10.5919 13.6793 10.7694 13.3637 11.085L11.9235 12.5253C10.2466 11.1837 9.10241 9.98029 7.48464 8.1455L8.92479 6.68565C9.24042 6.37001 9.41804 5.93597 9.41804 5.50192C9.41804 5.14689 9.29963 4.77205 9.0432 4.49582L7.58325 2.91755C7.1493 2.4638 6.61665 2.28629 6.04449 2.28629C4.3084 2.28629 2.375 4.67334 2.375 6.74485Z" fill="#1A1C1F"/>
</g>
<defs>
<clipPath id="clip0_2204_2748">
<rect width="20" height="20" fill="white"/>
</clipPath>
</defs>
</svg>

<svg xmlns="http://www.w3.org/2000/svg" width="20" height="20" fill="none"><g clip-path="url(#a)"><path fill="#1A1C1F" fill-rule="evenodd" d="M2.375 6.745c0 4.439 6.47 10.969 10.83 10.969 2.013 0 4.42-1.953 4.42-3.749 0-.532-.178-1.065-.592-1.48l-1.4-1.42c-.316-.315-.691-.473-1.086-.473a1.7 1.7 0 0 0-1.183.493l-1.44 1.44c-1.677-1.341-2.822-2.545-4.44-4.38l1.44-1.46a1.7 1.7 0 0 0 .494-1.183c0-.355-.118-.73-.375-1.006l-1.46-1.578c-.434-.454-.966-.632-1.539-.632-1.736 0-3.669 2.387-3.669 4.459" clip-rule="evenodd"/></g><defs><clipPath id="a"><path fill="#fff" d="M0 0h20v20H0z"/></clipPath></defs></svg>
